X:1
T:Silver Spring
T:E minor            Asahel Benham, 1790
T:Transcribed from Benham's Federal Harmony, 1793.
T:Isaac Watts, 1719 (Psalm 73, Part 2)                 86. 86. (C. M.)
%%score [ 1 2 3 4 ]
L:1/8
Q:1/4=100
M:4/4
K:G
V:1 treble nm="Tr." snm="Tr."
V:2 treble nm="C." snm="C."
V:3 treble-8 nm="T." snm="T."
V:4 bass nm="B." snm="B."
V:1
"_1. Were  I   in  heav'n without my God,  Twould be no joy            to         me;     And while   this     earth  is   my  a    –    bode,   I ____  long   for   none    but       thee." B8 | %1
 B2 B2 e4 | G4 c2 B2 | B8 | B4 B2 c2 | A6 B>c | d8 |: d4 d2 cA | B8 | B4 c2 BG | A8 | %11
 (e3 d) B2 d2 | d4 d4 | B8 :| %14
V:2
"_2. What if the springs of life were broke,  And flesh and  heart    should  faint?    God  is       my      soul's   e – ter – nal    rock,   The    strength  of   eve  –  ry       saint." E8 | %1
 G2 F2 B4 | G4 A2 F2 | G8 | E4 E2 E2 | (A3 B A2) G2 | F8 |: F4 F2 E2 | F8 | G4 A2 G2 | A8 | %11
 B4 B2 G2 | F4 F4 | E8 :| %14
V:3
"_3. But to draw near  to  thee,  my  God,  Shall be my sweet _____ em   – ploy;     My  tongue  shall sound thy works a –broad,  And       tell     the   world   my      joy." B8 | %1
 e2 f2 g4 | e4 e2 ^d2 | e8 | B4 g2 e2 | (d3 e d2) B2 | A8 |: B4 B>A G2 | F8 | e4 e2 de | f8 | %11
 (g2 e2) ed B2 | A4 (3(B2 c2 d2) | e8 :| %14
V:4
"________________________________________________\nEdited by B. C. Johnston, 2018\n   Measure 10, Counter: last note changed from G# to G." E,8 | %1
 E,2 B,,2 G,4 | C4 A,2 B,2 | E,8 | E,4 E,2 C,2 | D,6 G,2 | D,8 |: B,,4 B,,2 C,2 | B,,8 | %9
 E,4 A,2 B,G, | F,8 | E,4 G,2 G,2 | D,4 B,,4 | E,8 :| %14

